X:1
T:Diva Servatrix, 11.11.11.5
T:Diva Servatrix, 11.11.11.5
T:Bayeux Antiphoner, 1739
T:Public Domain Courtesy of the Cyber Hymnal™
C:Bayeux Antiphoner, 1739
Z:Public Domain
Z:Courtesy of the Cyber Hymnal™
%%score ( 1 2 ) ( 3 4 )
L:1/8
Q:1/4=115
M:2/2
K:F
V:1 treble 
V:2 treble 
V:3 bass 
V:4 bass 
V:1
 A4 A2 B2 | [FA]4 [DF]4 | G3 F G2 [F-A]2 | G4 [DF]4 | A4 A2 [Gc]2 | [DB]4 [CA]4 | G3 F E2 F2 | %7
 D4 [A,C]4 x2 | A4 G2 [A,F]2 | [DB]4 [CA]4 | F3 G [EA]2 [DB]2 | c4 c4 | [FA]4 [EG]2 F2 | %13
 G4 [CF]4 |] %14
V:2
 F8- | x8 | D6 x2 | F2 E2 x4 | F6 x2 | x8 | D4 C4 | C2 B,2 x6 | C6 x2 | x8 | F4 x4 | C2 D2 F2 E2 | %12
 x6 F2- | F2 E2 x4 |] %14
V:3
 [F,C]6 [D,D]2 | [F,C]4 [B,D]2 [A,C]2 | [G,B,]6 [D,D-]2 | [B,,D]2 [C,C]2 [F,,A,]4 | %4
 [F,C]6 [E,G,]2 | [D,F,]2 [E,G,]2 [F,A,]4 | [B,,B,]4 [C,G,]2 [A,,F,]2 | G,6 z2 E,2 | %8
 [F,,F,]4 [C,E,]2 [D,F,]2 | [B,,F,]4 F,4 | [D,A,]4 [C,E,]2 [B,,F,]2 | [A,,F,]4 [A,C]2 [G,B,]2 | %12
 C6 [D,A,]2 | [B,,D]2 [C,C]2 [F,,A,]4 |] %14
V:4
 x8 | x8 | x8 | x8 | x8 | x8 | x8 | B,,4 C,4 x2 | x8 | x4 F,2 E,2 | x8 | x8 | F,4 C,2 x2 | x8 |] %14

